X: 4
T: That's Right Too!
R: reel
M: 4/4
L: 1/8
K: Dmaj
|:D2 FA FEED|d2ef edBA|D2 FA FEED|BcdD FEEA|
D2 FA FEED|d2 ef edBA|BD D2 B2 dB|1 AFEF D4:|2 AFEF D3B||
|:afef d3B|A2 FD EDDB|afef d3A|Beed efge|
d2ef edBA|BcdD FEED|BD D2 BddB|1 AFEF D3B:|2 AFED D4||


Tune 1703	Setting 29144

